svgs/sharp-light/arrow-down-to-bracket.svg

<svg xmlns="http://www.w3.org/2000/svg" viewBox="0 0 448 512"><!--! Font Awesome Pro 6.6.0 by @fontawesome - https://fontawesome.com License - https://fontawesome.com/license (Commercial License) Copyright 2024 Fonticons, Inc. --><path d="M235.3 347.3L224 358.6l-11.3-11.3-128-128L73.4 208 96 185.4l11.3 11.3L208 297.4 208 16l0-16 32 0 0 16 0 281.4L340.7 196.7 352 185.4 374.6 208l-11.3 11.3-128 128zM32 336l0 144 384 0 0-144 0-16 32 0 0 16 0 160 0 16-16 0L16 512 0 512l0-16L0 336l0-16 32 0 0 16z"/></svg>

<svg xmlns="http://www.w3.org/2000/svg" viewBox="0 0 448 512"><!--! Font Awesome Pro 6.4.0 by @fontawesome - https://fontawesome.com License - https://fontawesome.com/license (Commercial License) Copyright 2023 Fonticons, Inc. --><path d="M235.3 347.3L224 358.6l-11.3-11.3-128-128L73.4 208 96 185.4l11.3 11.3L208 297.4V16 0h32V16 297.4L340.7 196.7 352 185.4 374.6 208l-11.3 11.3-128 128zM32 336V480H416V336 320h32v16V496v16H432 16 0V496 336 320H32v16z"/></svg>
